apps/scalable/slidewall.svg

<svg xmlns="http://www.w3.org/2000/svg" style="isolation:isolate" width="256" height="256"><defs><filter id="a" width="270.648" height="254.338" x="-7.32" y="2.95" filterUnits="userSpaceOnUse"><feGaussianBlur xmlns="http://www.w3.org/2000/svg" in="SourceGraphic" stdDeviation="4.294"/><feOffset xmlns="http://www.w3.org/2000/svg" dy="4" result="pf_100_offsetBlur"/><feFlood xmlns="http://www.w3.org/2000/svg" flood-opacity=".4"/><feComposite xmlns="http://www.w3.org/2000/svg" in2="pf_100_offsetBlur" operator="in" result="pf_100_dropShadow"/><feBlend xmlns="http://www.w3.org/2000/svg" in="SourceGraphic" in2="pf_100_dropShadow"/></filter></defs><g filter="url(#a)"><linearGradient id="b" x1=".671" x2=".329" y1="-.003" y2=".936" gradientTransform="matrix(244.648 0 0 228.338 5.676 11.947)" gradientUnits="userSpaceOnUse"><stop offset="0%" stop-color="#9b33ae"/><stop offset="100%" stop-color="#e97cc8"/></linearGradient><path fill="url(#b)" d="M165.685 11.947c74.055 0 84.639 10.557 84.639 84.544v59.251c0 73.986-10.584 84.543-84.639 84.543h-75.37c-74.055 0-84.639-10.557-84.639-84.543V96.491c0-73.987 10.584-84.544 84.639-84.544h75.37z"/></g><path fill="#FFF" d="M226.499 22.25L29.956 231.898c12.579 6.593 31.794 8.25 60.948 8.25h74.647c73.345 0 83.828-10.456 83.828-83.733V97.733c0-44.15-3.813-65.489-22.88-75.483z" opacity=".05"/><path fill="#FAF8F6" d="M160.431 12c.296 70.554 11.484 80.767 83.813 80.767h6.044L160.431 12z"/><path fill="#5D5D5D" d="M250.288 92.767C249.992 22.214 238.803 12 166.474 12h-6.043l89.857 80.767z"/><defs><filter id="c" width="154.958" height="164.545" x="42.67" y="44.8" filterUnits="userSpaceOnUse"><feGaussianBlur xmlns="http://www.w3.org/2000/svg" stdDeviation="9.064"/></filter></defs><g opacity=".4" filter="url(#c)"><linearGradient id="d" x1=".455" x2=".455" y2=".988" gradientTransform="matrix(112.737 0 0 122.324 63.783 65.912)" gradientUnits="userSpaceOnUse"><stop offset="0%" stop-opacity="0"/><stop offset="50.477%"/><stop offset="100%" stop-opacity="0"/></linearGradient><path fill="url(#d)" d="M63.783 65.912v122.324s62.041-25.075 112.736-61.2c0-.011-.005-.021-.013-.033a.175.175 0 0 0-.022-.04.531.531 0 0 1-.026-.04.082.082 0 0 1-.013-.039C122.971 89.606 63.783 65.912 63.783 65.912z"/></g><defs><filter id="e" width="118.014" height="127.602" x="61.14" y="63.27" filterUnits="userSpaceOnUse"><feGaussianBlur xmlns="http://www.w3.org/2000/svg" stdDeviation="1.133"/></filter></defs><path d="M63.783 65.912v122.324s62.041-25.075 112.736-61.2c0-.011-.005-.021-.013-.033a.175.175 0 0 0-.022-.04.531.531 0 0 1-.026-.04.082.082 0 0 1-.013-.039C122.971 89.606 63.783 65.912 63.783 65.912z" opacity=".1" filter="url(#e)"/><radialGradient id="f" cx=".5" cy=".5" r="14.914" fx=".5" fy=".5" gradientTransform="matrix(112.737 0 0 122.324 63.782 64.893)" gradientUnits="userSpaceOnUse"><stop offset="0%" stop-color="#f5f5f5"/><stop offset="100%" stop-color="#fbfbfb"/></radialGradient><path fill="url(#f)" d="M63.783 64.893v122.324s62.041-25.075 112.736-61.201c0-.011-.006-.019-.013-.034a.224.224 0 0 0-.022-.04c-.01-.015-.019-.026-.026-.04-.007-.015-.013-.026-.013-.038C122.971 88.587 63.782 64.893 63.782 64.893h.001z"/><path fill="#FFF" d="M63.782 64.893v1.019s58.787 23.526 112.077 60.569c.219-.156.441-.309.661-.465 0-.011-.006-.019-.013-.034-.006-.015-.014-.026-.023-.04-.01-.015-.02-.027-.026-.04a.085.085 0 0 1-.013-.039c-53.474-37.276-112.663-60.97-112.663-60.97z"/><g opacity=".4"><linearGradient id="g" x1=".517" x2=".517" y2="1"><stop offset="0%" stop-color="#fff"/><stop offset="12.5%" stop-opacity=".098" stop-color="#fff"/><stop offset="92.5%" stop-opacity=".098"/><stop offset="100%" stop-opacity=".498"/></linearGradient><path fill="none" stroke="url(#g)" stroke-linecap="round" stroke-linejoin="round" stroke-width="4.077" d="M165.685 11.947c74.055 0 84.639 10.557 84.639 84.544v59.251c0 73.986-10.584 84.543-84.639 84.543h-75.37c-74.055 0-84.639-10.557-84.639-84.543V96.491c0-73.987 10.584-84.544 84.639-84.544h75.37z" vector-effect="non-scaling-stroke"/></g></svg>

<svg xmlns="http://www.w3.org/2000/svg" style="isolation:isolate" width="256" height="256" viewBox="0 0 256 256">
 <defs>
  <filter id="TpVBWCG5bTKzHJA39B7zdaAHqofIr6Ek" width="270.648" height="254.338" x="-7.32" y="2.95" filterUnits="userSpaceOnUse">
   <feGaussianBlur xmlns="http://www.w3.org/2000/svg" in="SourceGraphic" stdDeviation="4.294"/>
   <feOffset xmlns="http://www.w3.org/2000/svg" dx="0" dy="4" result="pf_100_offsetBlur"/>
   <feFlood xmlns="http://www.w3.org/2000/svg" flood-opacity=".4"/>
   <feComposite xmlns="http://www.w3.org/2000/svg" in2="pf_100_offsetBlur" operator="in" result="pf_100_dropShadow"/>
   <feBlend xmlns="http://www.w3.org/2000/svg" in="SourceGraphic" in2="pf_100_dropShadow" mode="normal"/>
  </filter>
 </defs>
 <g filter="url(#TpVBWCG5bTKzHJA39B7zdaAHqofIr6Ek)">
  <linearGradient id="_lgradient_103" x1=".671" x2=".329" y1="-.003" y2=".936" gradientTransform="matrix(244.648,0,0,228.338,5.676,11.947)" gradientUnits="userSpaceOnUse">
   <stop offset="0%" style="stop-color:rgb(155,51,174)"/>
   <stop offset="100%" style="stop-color:rgb(233,124,200)"/>
  </linearGradient>
  <path fill="url(#_lgradient_103)" d="M 165.685 11.947 C 239.74 11.947 250.324 22.504 250.324 96.491 L 250.324 155.742 C 250.324 229.728 239.74 240.285 165.685 240.285 L 90.315 240.285 C 16.26 240.285 5.676 229.728 5.676 155.742 L 5.676 96.491 C 5.676 22.504 16.26 11.947 90.315 11.947 L 165.685 11.947 Z"/>
 </g>
 <g opacity=".05">
  <path fill="#FFFFFF" d="M 226.499 22.25 L 29.956 231.898 C 42.535 238.491 61.75 240.148 90.904 240.148 L 165.551 240.148 C 238.896 240.148 249.379 229.692 249.379 156.415 L 249.379 97.733 C 249.379 53.583 245.566 32.244 226.499 22.25 Z"/>
 </g>
 <g>
  <path fill="#FAF8F6" d="M 160.431 12 C 160.727 82.554 171.915 92.767 244.244 92.767 L 250.288 92.767 L 160.431 12 Z"/>
  <path fill="#5D5D5D" d="M 250.288 92.767 C 249.992 22.214 238.803 12 166.474 12 L 160.431 12 L 250.288 92.767 Z"/>
  <g>
   <defs>
    <filter id="afoCZLl3KVwo6BVz0kReDZ4XImpIkjRg" width="154.958" height="164.545" x="42.67" y="44.8" filterUnits="userSpaceOnUse">
     <feGaussianBlur xmlns="http://www.w3.org/2000/svg" stdDeviation="9.064"/>
    </filter>
   </defs>
   <g opacity=".4" filter="url(#afoCZLl3KVwo6BVz0kReDZ4XImpIkjRg)">
    <linearGradient id="_lgradient_104" x1=".455" x2=".455" y1="0" y2=".988" gradientTransform="matrix(112.737,0,0,122.324,63.783,65.912)" gradientUnits="userSpaceOnUse">
     <stop offset="0%" stop-opacity="0" style="stop-color:rgb(0,0,0)"/>
     <stop offset="50.477%" style="stop-color:rgb(0,0,0)"/>
     <stop offset="100%" stop-opacity="0" style="stop-color:rgb(0,0,0)"/>
    </linearGradient>
    <path fill="url(#_lgradient_104)" d="M 63.783 65.912 L 63.783 188.236 C 63.783 188.236 125.824 163.161 176.519 127.036 C 176.519 127.025 176.514 127.015 176.506 127.003 C 176.501 126.989 176.493 126.976 176.484 126.963 C 176.474 126.949 176.465 126.935 176.458 126.923 C 176.45 126.909 176.445 126.896 176.445 126.884 C 122.971 89.606 63.783 65.912 63.783 65.912 L 63.783 65.912 Z"/>
   </g>
   <defs>
    <filter id="qMoKvBi3s4OJTkHTBv1lZBvTQUj7oljI" width="118.014" height="127.602" x="61.14" y="63.27" filterUnits="userSpaceOnUse">
     <feGaussianBlur xmlns="http://www.w3.org/2000/svg" stdDeviation="1.133"/>
    </filter>
   </defs>
   <g opacity=".1" filter="url(#qMoKvBi3s4OJTkHTBv1lZBvTQUj7oljI)">
    <path d="M 63.783 65.912 L 63.783 188.236 C 63.783 188.236 125.824 163.161 176.519 127.036 C 176.519 127.025 176.514 127.015 176.506 127.003 C 176.501 126.989 176.493 126.976 176.484 126.963 C 176.474 126.949 176.465 126.935 176.458 126.923 C 176.45 126.909 176.445 126.896 176.445 126.884 C 122.971 89.606 63.783 65.912 63.783 65.912 L 63.783 65.912 Z"/>
   </g>
   <radialGradient id="_rgradient_3" cx=".5" cy=".5" r="14.914" fx=".5" fy=".5" gradientTransform="matrix(112.737,0,0,122.324,63.782,64.893)" gradientUnits="userSpaceOnUse">
    <stop offset="0%" style="stop-color:rgb(245,245,245)"/>
    <stop offset="100%" style="stop-color:rgb(251,251,251)"/>
   </radialGradient>
   <path fill="url(#_rgradient_3)" d="M 63.783 64.893 L 63.783 187.217 C 63.783 187.217 125.824 162.142 176.519 126.016 C 176.519 126.005 176.513 125.997 176.506 125.982 C 176.5 125.967 176.493 125.956 176.484 125.942 C 176.474 125.927 176.465 125.916 176.458 125.902 C 176.451 125.887 176.445 125.876 176.445 125.864 C 122.971 88.587 63.782 64.893 63.782 64.893 L 63.783 64.893 Z"/>
   <path fill="#FFFFFF" d="M 63.782 64.893 L 63.782 65.912 C 63.782 65.912 122.569 89.438 175.859 126.481 C 176.078 126.325 176.3 126.172 176.52 126.016 C 176.52 126.005 176.514 125.997 176.507 125.982 C 176.501 125.967 176.493 125.956 176.484 125.942 C 176.474 125.927 176.464 125.915 176.458 125.902 C 176.45 125.887 176.445 125.875 176.445 125.863 C 122.971 88.587 63.782 64.893 63.782 64.893 L 63.782 64.893 Z"/>
  </g>
 </g>
 <g opacity=".4">
  <linearGradient id="_lgradient_105" x1=".517" x2=".517" y1="0" y2="1">
   <stop offset="0%" style="stop-color:rgb(255,255,255)"/>
   <stop offset="12.5%" stop-opacity=".098" style="stop-color:rgb(255,255,255)"/>
   <stop offset="92.5%" stop-opacity=".098" style="stop-color:rgb(0,0,0)"/>
   <stop offset="100%" stop-opacity=".498" style="stop-color:rgb(0,0,0)"/>
  </linearGradient>
  <path fill="none" stroke="url(#_lgradient_105)" stroke-linecap="round" stroke-linejoin="round" stroke-width="4.077" d="M 165.685 11.947 C 239.74 11.947 250.324 22.504 250.324 96.491 L 250.324 155.742 C 250.324 229.728 239.74 240.285 165.685 240.285 L 90.315 240.285 C 16.26 240.285 5.676 229.728 5.676 155.742 L 5.676 96.491 C 5.676 22.504 16.26 11.947 90.315 11.947 L 165.685 11.947 Z" vector-effect="non-scaling-stroke"/>
 </g>
</svg>
